dist/svg/static/polls-small.svg

<?xml version="1.0" encoding="UTF-8" standalone="no"?>
<svg width="24px" height="24px" viewBox="0 0 24 24" version="1.1" xmlns="http://www.w3.org/2000/svg" xmlns:xlink="http://www.w3.org/1999/xlink">
    <!-- Generator: sketchtool 46.2 (44496) - http://www.bohemiancoding.com/sketch -->
    <title>polls-small</title>
    <desc>Created with sketchtool.</desc>
    <defs></defs>
    <g id="icons-published" stroke="none" stroke-width="1" fill="none" fill-rule="evenodd">
        <g id="briefing" transform="translate(-3524.000000, -1306.000000)"></g>
        <g id="polls-small" stroke="#000000">
            <path d="M1,23.5 L23,23.5 L1,23.5 Z M17.5,5.5 L22.5,5.5 L22.5,20.5 L17.5,20.5 L17.5,5.5 Z M9.5,0.5 L14.5,0.5 L14.5,20.5 L9.5,20.5 L9.5,0.5 Z M1.5,9.5 L6.5,9.5 L6.5,20.5 L1.5,20.5 L1.5,9.5 Z" id="Shape"></path>
        </g>
    </g>
</svg>

<svg xmlns="http://www.w3.org/2000/svg" width="24" height="24" viewBox="0 0 24 24"><path d="M1 23.5h22m-5.5-18h5v15h-5zm-8-5h5v20h-5zm-8 9h5v11h-5z" fill="none" stroke="currentColor" stroke-miterlimit="10"/></svg>
